X: 27303
T: Missing Time
R: reel
M: 4/4
K: Fmajor
^G|S AF ~F2 AFcF|~F2 AF cFAF|AF ~F2 EFEF|~F2 EF EFEF|
B3 F ~F2 BF|~F2 BF cFdF|cE ~E2 BE ~E2|AE ~E2 GE ~E2||
AF ~F2 CFAF|~F2 GF AF ~F2|AF ~F2 GFGF|~F2 GF GFGF|
BF ~F2 EF ~F2|BFDF cFdF|cG ~G2 dG ~G2|eG ~G2 fGgG||
K:Ddor
|:ac ~c2 gc ~c2|fc ~c2 acfc|fd ~d2 ~d2 ^cd|~d2 ^cd cdcd|
[1 f3 d ~d2 fd|~d2 fd gdad|gc ~c2 dcdc|~c2 dc dcdc:|
[2 f3 d ~d2 fd|~d2 fd adgd|fe ~e2 ed ~d2|ec ~c2 B z B"D.S."G||

